src/components/00-materials/images-raw/Security Cam.svg

<svg width="96" height="96" viewBox="0 0 96 96" fill="none" xmlns="http://www.w3.org/2000/svg">
<path d="M61.78 49.8801L23.62 43.6701C22.0601 43.4121 20.6652 42.5489 19.7383 41.2681C18.8114 39.9873 18.4274 38.3924 18.67 36.8301L20.62 25.0001C20.8845 23.4356 21.758 22.0397 23.0492 21.1176C24.3405 20.1956 25.9444 19.8225 27.51 20.0801L75 27.8101L63.87 48.8101C63.6789 49.186 63.3739 49.4919 62.9985 49.6841C62.6232 49.8762 62.1967 49.9449 61.78 49.8801Z" stroke="#00008F" stroke-width="2" stroke-linecap="round" stroke-linejoin="round"/>
<path d="M49.36 47.8599L49.03 49.8599C48.856 50.9061 48.2737 51.8403 47.4111 52.4573C46.5485 53.0742 45.4762 53.3234 44.43 53.1499L36.52 51.8599C35.4742 51.6905 34.5384 51.1131 33.9179 50.2544C33.2973 49.3958 33.0427 48.326 33.21 47.2799L33.53 45.2799L49.36 47.8599ZM40.39 22.1699L38.77 32.0099L40.39 22.1699ZM46.32 23.1399L45.35 29.0399L46.32 23.1399ZM24.61 37.7799L26.59 38.0999L24.61 37.7799ZM31.53 38.8999L33.51 39.2299L31.53 38.8999ZM73 31.5299L78.28 32.3899C78.5437 32.4242 78.798 32.5108 79.0278 32.6445C79.2577 32.7782 79.4586 32.9564 79.6188 33.1687C79.7789 33.3811 79.8951 33.6232 79.9606 33.8809C80.0261 34.1387 80.0395 34.4069 80 34.6699L78.35 44.4999C78.3075 44.7594 78.2143 45.0079 78.0757 45.2313C77.937 45.4547 77.7557 45.6485 77.5421 45.8018C77.3285 45.955 77.0867 46.0647 76.8307 46.1244C76.5747 46.1841 76.3094 46.1928 76.05 46.1499L66.16 44.5399L73 31.5299ZM15 58.1299H15.57C16.8092 58.1299 18.0363 58.3742 19.181 58.8487C20.3258 59.3232 21.3658 60.0187 22.2416 60.8954C23.1173 61.7722 23.8117 62.8129 24.2851 63.9581C24.7584 65.1034 25.0013 66.3307 25 67.5699C25 68.8083 24.7561 70.0345 24.2822 71.1786C23.8083 72.3227 23.1137 73.3623 22.238 74.2379C21.3624 75.1136 20.3228 75.8082 19.1787 76.2821C18.0346 76.756 16.8084 76.9999 15.57 76.9999H15V58.1299Z" stroke="#00008F" stroke-width="2" stroke-linecap="round" stroke-linejoin="round"/>
<path d="M24.67 70.0501H38.96L39.24 69.9501L39.36 69.8801C39.4663 69.8354 39.567 69.7784 39.66 69.7101L39.75 69.6401C39.8467 69.568 39.937 69.4877 40.02 69.4001L40.09 69.3201C40.1782 69.2295 40.2554 69.1288 40.32 69.0201C40.3219 68.9934 40.3219 68.9667 40.32 68.9401C40.3898 68.8287 40.45 68.7116 40.5 68.5901V68.5001C40.553 68.3752 40.59 68.2442 40.61 68.1101L42.92 53.1101L37.98 52.3101L36.04 65.3101H24.67" stroke="#00008F" stroke-width="2" stroke-linecap="round" stroke-linejoin="round"/>
</svg>

<svg width="96" height="96" viewBox="0 0 96 96" fill="none" xmlns="http://www.w3.org/2000/svg"><path d="M61.78 49.88l-38.16-6.21a6 6 0 01-4.95-6.84L20.62 25a6 6 0 016.89-4.92L75 27.81l-11.13 21a2 2 0 01-2.09 1.07z" stroke="#00008F" stroke-width="2" stroke-linecap="round" stroke-linejoin="round"/><path d="M49.36 47.86l-.33 2a4 4 0 01-4.6 3.29l-7.91-1.29a4 4 0 01-3.31-4.58l.32-2 15.83 2.58zm-8.97-25.69l-1.62 9.84 1.62-9.84zm5.93.97l-.97 5.9.97-5.9zM24.61 37.78l1.98.32-1.98-.32zm6.92 1.12l1.98.33-1.98-.33zM73 31.53l5.28.86A2 2 0 0180 34.67l-1.65 9.83a2 2 0 01-2.3 1.65l-9.89-1.61L73 31.53zm-58 26.6h.57A9.43 9.43 0 0125 67.57 9.43 9.43 0 0115.57 77H15V58.13z" stroke="#00008F" stroke-width="2" stroke-linecap="round" stroke-linejoin="round"/><path d="M24.67 70.05h14.29l.28-.1.12-.07c.106-.045.207-.102.3-.17l.09-.07c.097-.072.187-.152.27-.24l.07-.08c.088-.09.165-.191.23-.3a.562.562 0 000-.08c.07-.111.13-.228.18-.35v-.09c.053-.125.09-.256.11-.39l2.31-15-4.94-.8-1.94 13H24.67" stroke="#00008F" stroke-width="2" stroke-linecap="round" stroke-linejoin="round"/></svg>
